X:3610
T:Miss Shepherd
C:J. Scott Skinner
M:4/4
O:Scotland
R:Reel
Z:Richard Robinson 
%%TUNEURL: http://www.leeds.ac.uk/music/Info/RRTuneBk/gettune/00000a24.html
%%ID:00000a24
K:A min
{^G}A|\
A,B, CD E2 DC|B,G ^FG DB, G,B,|\
A,B, CD E^G Ac|BA ^GB cA A:|
^g|\
a2 ed cB A^F|G2 DC B,A, G,^g|\
a2 ed cB Ac|BA ^GB cA A^g|
a/a/a ed cB A^G|G/G/G DC B,A, G,B,|\
A,B, CD E^G Ac|BA ^G[eB] cA A|]
